X: 1
T: Bourr\'ee du Lien
O: France - Bourbonnais Traditional
R: bourree 2
S: Qu\'ebec City workshop, from Betsy Hooper
M: 2/4
L: 1/8
K: G
|:\
"G"G>A BG | "D7"cB AF | "G"G>A BG | "D7"F>G AF |\
"G"G>A BG | "D7"cB AF | "D7"F>G AF | "G"G4 :|
|:\
"Am"c>B Ac | "G"B>A GB | "D"A>G FA | "G"d B2 B |\
"Am"c>B Ac | "G"B>A GB | "D"A>G FA | "G"G4 :|
